X: 1
T: Burn Deviot, The
M: 4/4
L: 1/8
R: hornpipe
K: Gmaj
(3Bc^c|:(3dBd b>f  a>g d>B|c>E G>c B2 A>G|F>G A>B d>B g>B|A>d (3^cde d2 (3Bc^c|
(3dBd b>f a>g d>B|c>E G>c B2 A>G|F>G A>B d>B (3cBA|1 G2 G2 G2 (3Bc^c:|2 G2 G2 G2 zB||
|:(3cBc a>g b2 a>f|g2 B>e d2 B>G|F>d E>c D>B A>G| F>G A>B (3cec A>B|
(3cBc a>g b2 a>f|g2 B>e d2 B>G|F>d E>c D>B (3AGF|1 G2 G2 G2 zB:|2 G2 G2 G2 z2||
